www/assets/icons/local_fire_department.svg

<svg width="24" height="24" viewBox="0 0 24 24" xmlns="http://www.w3.org/2000/svg" fill='currentColor'><path d="M11.9998 13.9L9.86979 15.99C9.30979 16.55 8.99979 17.28 8.99979 18.06C8.99979 19.68 10.3498 21 11.9998 21C13.6498 21 14.9998 19.68 14.9998 18.06C14.9998 17.28 14.6898 16.54 14.1298 15.99L11.9998 13.9Z"/><path d="M15.9998 7L15.5598 7.55C14.3798 9.02 11.9998 8.19 11.9998 6.3V3C11.9998 3 3.99979 7 3.99979 14C3.99979 16.92 5.55979 19.47 7.88979 20.86C7.32979 20.07 6.99979 19.1 6.99979 18.06C6.99979 16.74 7.51979 15.5 8.46979 14.56L11.9998 11.1L15.5298 14.57C16.4798 15.5 16.9998 16.74 16.9998 18.07C16.9998 19.09 16.6898 20.03 16.1498 20.82C18.0398 19.67 19.4398 17.76 19.8598 15.52C20.5198 11.97 18.7898 8.62 15.9998 7Z"/></svg>

<svg xmlns="http://www.w3.org/2000/svg" width="24" height="24" viewBox="0 0 24 24" fill='currentColor'><path d="m12 13.9-2.13 2.09c-.56.56-.87 1.29-.87 2.07C9 19.68 10.35 21 12 21s3-1.32 3-2.94c0-.78-.31-1.52-.87-2.07z"/><path d="m16 7-.44.55C14.38 9.02 12 8.19 12 6.3V3S4 7 4 14c0 2.92 1.56 5.47 3.89 6.86-.56-.79-.89-1.76-.89-2.8 0-1.32.52-2.56 1.47-3.5L12 11.1l3.53 3.47c.95.93 1.47 2.17 1.47 3.5 0 1.02-.31 1.96-.85 2.75 1.89-1.15 3.29-3.06 3.71-5.3.66-3.55-1.07-6.9-3.86-8.52"/></svg>
